X: 13727
T: Forde's
R: polka
M: 2/4
K: Dmixolydian
|:AD FA|dc AB|c2 cE|EF ~G2|
AD FA|dc AB|c2 cE|1 ED D>F:|2 ED D>e||
|:fd ed|^cA Ae|fd ef|ag ge|
fd ed|^cA AB|c2 cE|1 ED D>e:|2 ED D>F||

